packages/kaspersky-hexa-ui-icons/src/iconsSVGs/48/License.svg

<svg width="48" height="48" viewBox="0 0 48 48" fill="none" xmlns="http://www.w3.org/2000/svg">
<path fill-rule="evenodd" clip-rule="evenodd" d="M34.41 0H7V44H22V42H9V2H33V9H40V42H36V44H42V7.6L34.41 0ZM35 3.41L38.59 7H35V3.41ZM31.29 28.8L32.71 30.22L28 34.92L25.29 32.22L26.71 30.8L28 32.1L31.29 28.8ZM36.29 36.24C37.0376 35.8628 37.5935 35.1902 37.8233 34.3849C38.0531 33.5797 37.9359 32.715 37.5 32C37.9384 31.2958 38.0657 30.4415 37.8516 29.6401C37.6375 28.8387 37.1012 28.1617 36.37 27.77C36.3911 26.9421 36.069 26.1422 35.48 25.56C34.9084 24.9563 34.1002 24.6345 33.27 24.68C32.88 23.9471 32.2038 23.4086 31.4022 23.1926C30.6007 22.9766 29.7454 23.1023 29.04 23.54C28.3346 23.1023 27.4793 22.9766 26.6778 23.1926C25.8762 23.4086 25.2 23.9471 24.81 24.68C23.9812 24.6425 23.1762 24.963 22.6 25.56C22.011 26.1422 21.6889 26.9421 21.71 27.77C20.9652 28.1474 20.4114 28.8182 20.1818 29.6209C19.9522 30.4237 20.0675 31.2858 20.5 32C20.0616 32.7042 19.9343 33.5585 20.1484 34.3599C20.3625 35.1613 20.8988 35.8383 21.63 36.23C21.6089 37.0579 21.931 37.8578 22.52 38.44C22.9119 38.8412 23.4123 39.1192 23.96 39.24V48L28.96 45.17L33.96 48V39.26C34.5084 39.1353 35.0087 38.8539 35.4 38.45C36.0037 37.8746 36.3407 37.0739 36.33 36.24H36.29ZM29 42.86L26 44.56V40.56C26.204 40.6656 26.4185 40.7494 26.64 40.81C27.4394 41.0351 28.2967 40.9116 29 40.47C29.4688 40.7605 30.0085 40.9162 30.56 40.92C30.8302 40.9172 31.099 40.8802 31.36 40.81C31.5815 40.7494 31.796 40.6656 32 40.56V44.56L29 42.86ZM34.3 35.07C34.1415 35.3408 34.1192 35.6704 34.24 35.96C34.3799 36.328 34.2907 36.7439 34.0123 37.0223C33.7339 37.3007 33.3181 37.3899 32.95 37.25C32.6611 37.1286 32.3321 37.1496 32.061 37.3067C31.7899 37.4639 31.6082 37.739 31.57 38.05C31.5091 38.4422 31.2221 38.7612 30.8385 38.863C30.4549 38.9649 30.0474 38.8303 29.8 38.52C29.6111 38.2682 29.3148 38.12 29 38.12C28.6852 38.12 28.3889 38.2682 28.2 38.52C27.9526 38.8303 27.5451 38.9649 27.1615 38.863C26.7779 38.7612 26.4909 38.4422 26.43 38.05C26.3918 37.739 26.2101 37.4639 25.939 37.3067C25.6679 37.1496 25.3389 37.1286 25.05 37.25C24.6908 37.3794 24.2893 37.293 24.0151 37.0274C23.7409 36.7617 23.6419 36.3631 23.76 36C23.8814 35.7111 23.8604 35.3821 23.7033 35.111C23.5461 34.8399 23.271 34.6582 22.96 34.62C22.5486 34.5716 22.2097 34.2746 22.1077 33.8732C22.0056 33.4717 22.1617 33.0489 22.5 32.81C22.7518 32.6211 22.9 32.3248 22.9 32.01C22.9 31.6952 22.7518 31.3989 22.5 31.21C22.1897 30.9626 22.0551 30.5551 22.157 30.1715C22.2588 29.7879 22.5778 29.5009 22.97 29.44C23.281 29.4018 23.5561 29.2201 23.7133 28.949C23.8704 28.6779 23.8914 28.3489 23.77 28.06C23.6301 27.6919 23.7193 27.2761 23.9977 26.9977C24.2761 26.7193 24.6919 26.6301 25.06 26.77C25.3489 26.8914 25.6779 26.8704 25.949 26.7133C26.2201 26.5561 26.4018 26.281 26.44 25.97C26.5009 25.5778 26.7879 25.2588 27.1715 25.157C27.5551 25.0551 27.9626 25.1897 28.21 25.5C28.3989 25.7518 28.6952 25.9 29.01 25.9C29.3248 25.9 29.6211 25.7518 29.81 25.5C30.0574 25.1897 30.4649 25.0551 30.8485 25.157C31.2321 25.2588 31.5191 25.5778 31.58 25.97C31.6182 26.281 31.7999 26.5561 32.071 26.7133C32.3421 26.8704 32.6711 26.8914 32.96 26.77C33.3281 26.6301 33.7439 26.7193 34.0223 26.9977C34.3007 27.2761 34.3899 27.6919 34.25 28.06C34.1286 28.3489 34.1496 28.6779 34.3067 28.949C34.4639 29.2201 34.739 29.4018 35.05 29.44C35.4389 29.5071 35.7519 29.7966 35.8491 30.179C35.9464 30.5615 35.8096 30.9653 35.5 31.21C35.2482 31.3989 35.1 31.6952 35.1 32.01C35.1 32.3248 35.2482 32.6211 35.5 32.81C35.8103 33.0574 35.9449 33.4649 35.843 33.8485C35.7412 34.2321 35.4222 34.5191 35.03 34.58C34.7241 34.6219 34.4546 34.8027 34.3 35.07ZM29 10V12H20V10H29ZM14 14H35V16H14V14ZM14 18H35V20H14V18Z"  fill="currentColor"/>
</svg>

<svg xmlns="http://www.w3.org/2000/svg" width="48" height="48" fill="none" viewBox="0 0 48 48"><path fill="currentColor" fill-rule="evenodd" d="M34.41 0H7v44h15v-2H9V2h24v7h7v33h-4v2h6V7.6zM35 3.41 38.59 7H35zM31.29 28.8l1.42 1.42-4.71 4.7-2.71-2.7 1.42-1.42L28 32.1zm5 7.44A3 3 0 0 0 37.5 32a3 3 0 0 0-1.13-4.23 3 3 0 0 0-.89-2.21 2.83 2.83 0 0 0-2.21-.88 3 3 0 0 0-4.23-1.14 3 3 0 0 0-4.23 1.14 2.89 2.89 0 0 0-2.21.88 3 3 0 0 0-.89 2.21A3 3 0 0 0 20.5 32a3 3 0 0 0 1.13 4.23 3 3 0 0 0 .89 2.21 2.88 2.88 0 0 0 1.44.8V48l5-2.83 5 2.83v-8.74a2.9 2.9 0 0 0 1.44-.81 3 3 0 0 0 .93-2.21zM29 42.86l-3 1.7v-4c.204.1056.4185.1894.64.25a2.94 2.94 0 0 0 2.36-.34 3 3 0 0 0 1.56.45 3.2 3.2 0 0 0 .8-.11 3.27 3.27 0 0 0 .64-.25v4zm5.3-7.79a1 1 0 0 0-.06.89 1 1 0 0 1-1.29 1.29 1.0002 1.0002 0 0 0-1.38.8.9998.9998 0 0 1-1.77.47 1 1 0 0 0-1.6 0 .9998.9998 0 0 1-1.77-.47 1 1 0 0 0-1.38-.8A1 1 0 0 1 23.76 36a1.0002 1.0002 0 0 0-.8-1.38.9999.9999 0 0 1-.46-1.81 1 1 0 0 0 0-1.6.9998.9998 0 0 1 .47-1.77 1 1 0 0 0 .8-1.38.9999.9999 0 0 1 1.29-1.29 1.0002 1.0002 0 0 0 1.38-.8.9998.9998 0 0 1 1.77-.47 1 1 0 0 0 1.6 0 .9998.9998 0 0 1 1.77.47 1 1 0 0 0 1.38.8.9999.9999 0 0 1 1.29 1.29 1.0002 1.0002 0 0 0 .8 1.38.9999.9999 0 0 1 .45 1.77 1 1 0 0 0 0 1.6.9998.9998 0 0 1-.47 1.77 1 1 0 0 0-.73.49M29 10v2h-9v-2zm-15 4h21v2H14zm0 4h21v2H14z" clip-rule="evenodd"/></svg>
